!!!OTL: EINSTMALS SASS ICH VOR MEINER HUETTE
!!!ARE: Europa, Mitteleuropa, Deutschland, Hessen, Odenwald; Nassau
!!!SCT: E0355
!!!YEM: Copyright 1995, estate of Helmut Schaffrath.
**kern
*ICvox
*Ivox
*M6/8
*k[f#]
*G:
{8d
8e
8f#
=1
4g
8b
8a
8g
8a
=2
8b
8a
8r}
{8a
8a
8a
=3
4dd
8cc
4b
8a
=4
4g
8r}
{8d
8e
8f#
=5
4g
8b
8a
8g
8a
=6
8b
8a
8r}
{8a
8a
8a
=7
4dd
8cc
4b
8a
=8
4g
8r}
{8b
8b
8b
=9
8dd
8cc
8a
8cc
8b
8g
=10
8b
8a
8r}
{8b
8b
8b
=11
8dd
8cc
8a
8cc
8b
8g
=12
8b
8a
8r}
{8d
8e
8f#
=13
4g
8b
8a
8g
8a
=14
8b
8a
8r}
{8ee
8dd
8cc
=15
8b
8a
8g
8a
8g
8f#
=16
4.dd}
{8ee
8dd
8cc
=17
8b
8a
8g
4dd
8dd
=18
4g
8r}
==
!!!AGN: historisches Lied, Krieg, Schlacht bei Leipzig (1813)
!!!ONB: ESAC (Essen Associative Code) Database: ERK1
!!!AMT: compound duple
!!!AIN: vox
!!!EED: Helmut Schaffrath
!!!EEV: 1.0
*-
